X: 131198
T: Mountain Lark [b]
Z: B.Black
S: "Treoir" 33/4
N: Note that only B part is repeated (at least
N: according to source)
L: 1/8
M: 4/4
R: reel
K: Edor
A|B2 BB BABd|e2 dB AFDF|EB B2 EB B2|dBAd BEED|
E2 BB BABd|e2 dB AFDF|EB B2 EB B2|dbAF e3 f||
eB B2 efge|fedc dfaf|eB B2 efge|fedf e2 gf|
eB B2 efge|fedc dfaf|g2 ge f2 fe|dBAd BE E2 :|
